modules/hawcons-stroke/icons/icon-41-target-arrow.svg

<?xml version="1.0" encoding="UTF-8" standalone="no"?>
<svg width="32px" height="32px" viewBox="0 0 32 32" version="1.1" xmlns="http://www.w3.org/2000/svg" xmlns:xlink="http://www.w3.org/1999/xlink" xmlns:sketch="http://www.bohemiancoding.com/sketch/ns">
    <!-- Generator: Sketch 3.0.3 (7891) - http://www.bohemiancoding.com/sketch -->
    <title>icon 41 target arrow</title>
    <desc>Created with Sketch.</desc>
    <defs></defs>
    <g id="Page-1" stroke="none" stroke-width="1" fill="none" fill-rule="evenodd" sketch:type="MSPage">
        <g id="icon-41-target-arrow" sketch:type="MSArtboardGroup" fill="#929292">
            <path d="M9,23.7710686 L8,24.7710686 L8,25 L7.88553429,25 L8,25 L8,28 L7,28 L7,25.7710686 L5.70710678,27.0639618 L5,26.356855 L6.35685501,25 L4,25 L4,24 L7.35685501,24 L7.35685501,24 L8.35685501,23 L6,23 L6,22 L9.35685501,22 L14.6784275,16.6784275 L14.6784275,16.6784275 L14,16 L17,15 L16,18 L15.3855343,17.3855343 L10,22.7710686 L10,22.8855343 L10,26 L9,26 L9,23.7710686 L9,23.7710686 Z M7.77893072,21 C6.65384186,19.2744429 6,17.2135779 6,15 C6,8.92486775 10.9248678,4 17,4 C23.0751322,4 28,8.92486775 28,15 C28,21.0751322 23.0751322,26 17,26 C14.7864221,26 12.7255571,25.3461581 11,24.2210693 L11,23.1492426 L11.0852091,23.0640334 C12.741693,24.2810779 14.7868899,25 17,25 C22.5228475,25 27,20.5228475 27,15 C27,9.4771525 22.5228475,5 17,5 C11.4771525,5 7,9.4771525 7,15 C7,17.2274432 7.72826439,19.2847912 8.95967558,20.9469263 L8.90660191,21 L7.77893072,21 L7.77893072,21 L7.77893072,21 Z M14.0032974,15.141915 C14.0011073,15.0948849 14,15.0475717 14,15 C14,13.3431458 15.3431458,12 17,12 C18.6568542,12 20,13.3431458 20,15 C20,16.6568542 18.6568542,18 17,18 C16.9524283,18 16.9051151,17.9988927 16.858085,17.9967026 L17.140303,17.0089396 L17.1551732,16.9940694 C18.1872272,16.9148739 19,16.0523536 19,15 C19,13.8954305 18.1045695,13 17,13 C15.943961,13 15.0790872,13.8184756 15.0051274,14.8556779 L14.0032974,15.141915 L14.0032974,15.141915 L14.0032974,15.141915 Z M11.1148796,18.7917223 C10.4094344,17.6990591 10,16.3973438 10,15 C10,11.1340068 13.1340068,8 17,8 C20.8659932,8 24,11.1340068 24,15 C24,18.8659932 20.8659932,22 17,22 C15.6171294,22 14.3279167,21.5990033 13.2422972,20.9069454 L13.9696255,20.1796171 C14.8589753,20.7010619 15.8945773,21 17,21 C20.3137085,21 23,18.3137085 23,15 C23,11.6862915 20.3137085,9 17,9 C13.6862915,9 11,11.6862915 11,15 C11,16.119998 11.3068733,17.1683219 11.841125,18.065477 L11.1148796,18.7917223 L11.1148796,18.7917223 L11.1148796,18.7917223 Z" id="target-arrow" sketch:type="MSShapeGroup"></path>
        </g>
    </g>
</svg>

<svg width="32" height="32" xmlns="http://www.w3.org/2000/svg"><path d="M9 23.771l-1 1V25h-.114H8v3H7v-2.229l-1.293 1.293L5 26.357 6.357 25H4v-1h3.357l1-1H6v-1h3.357l5.321-5.322L14 16l3-1-1 3-.614-.614L10 22.77V26H9v-2.229zM7.779 21A10.949 10.949 0 0 1 6 15C6 8.925 10.925 4 17 4s11 4.925 11 11-4.925 11-11 11c-2.214 0-4.274-.654-6-1.779V23.15l.085-.085A9.955 9.955 0 0 0 17 25c5.523 0 10-4.477 10-10S22.523 5 17 5 7 9.477 7 15c0 2.227.728 4.285 1.96 5.947L8.907 21H7.779zm6.224-5.858a3 3 0 1 1 2.855 2.855l.282-.988.015-.015a2 2 0 1 0-2.15-2.138l-1.002.286zm-2.888 3.65a7 7 0 1 1 2.127 2.115l.728-.727a6 6 0 1 0-2.129-2.114l-.726.726z" fill="#929292" fill-rule="evenodd"/></svg>
